assets/Person in bed/Medium-Dark/Flat/person_in_bed_flat_medium-dark.svg

<svg width="32" height="32" viewBox="0 0 32 32" fill="none" xmlns="http://www.w3.org/2000/svg">
<path d="M3.98999 27H7V30H3.98999V27Z" fill="#635994"/>
<path d="M25 27H28.02V30H25V27Z" fill="#635994"/>
<path d="M4 21V12C4 11.4477 3.55228 11 3 11C2.44772 11 2 11.4477 2 12V27H30V21H4Z" fill="#533566"/>
<path d="M30 17H4V21H30V17Z" fill="#A17FD5"/>
<path d="M10.34 14.9149L5.58 13.7949C4.77 13.6049 4 14.2149 4 15.0449V16.9249C4 16.9649 4.04 17.0049 4.08 17.0049H11.33V16.1649C11.33 15.5649 10.92 15.0549 10.34 14.9149Z" fill="#007ACF"/>
<path d="M11 14C11 13.4477 11.4477 13 12 13H27C28.6569 13 30 14.3431 30 16V22H11V14Z" fill="#0092E7"/>
<path d="M12.5799 14.37C12.0599 15.04 10.8999 15.84 9.8699 15.53L8.5899 14.98L7.2199 14.44C6.3999 13.8 6.2499 12.62 6.8899 11.8L7.6399 10.84C8.2799 10.02 9.4599 9.87 10.2799 10.51L10.8762 10.9683C10.8804 10.9686 10.8849 10.9692 10.8899 10.97C11.2273 11.0301 11.4322 11.0368 11.5739 11.0414C11.7387 11.0468 11.8177 11.0493 11.9199 11.13C12.1099 11.28 12.0999 11.61 11.9499 11.8L11.9482 11.8021C12.8826 12.5618 13.4539 13.245 12.5799 14.37Z" fill="#966661"/>
<path d="M8.68005 11.44C7.70005 12.7 8.47005 13.29 8.47005 13.29C8.47005 13.29 7.94005 13.71 9.48005 14.91C10.2801 15.53 9.63005 16 9.41005 16.28C9.06005 16.75 8.20005 16.2 8.69005 15.58C8.69005 15.58 8.06005 16.36 5.89005 14.66C4.30005 13.43 5.24005 11.84 6.29005 11.07C7.04005 10.51 6.72005 10.34 7.37005 9.5C7.59005 9.22 8.14005 8.83 8.77005 9.33C9.38005 9.8 9.51005 10.37 8.68005 11.44Z" fill="#2D242D"/>
<path d="M8.47007 13.29C8.21007 13.62 8.27007 14.1 8.60007 14.36C8.93007 14.62 9.41007 14.56 9.67007 14.23" fill="#8B5C56"/>
<path fill-rule="evenodd" clip-rule="evenodd" d="M12.1421 12.3615C12.2076 12.3849 12.2417 12.4569 12.2183 12.5223C12.0955 12.8661 11.7036 13.0636 11.3452 12.9277C11.2802 12.903 11.2475 12.8304 11.2721 12.7654C11.2968 12.7004 11.3694 12.6677 11.4344 12.6923C11.656 12.7764 11.9041 12.6539 11.9813 12.4377C12.0047 12.3722 12.0767 12.3381 12.1421 12.3615Z" fill="#990839"/>
<path d="M10.5699 11.97C10.3799 12.2 10.0499 12.26 9.78994 12.11C9.73994 12.08 9.71994 12.02 9.74994 11.97C9.77994 11.92 9.83994 11.9 9.88994 11.93C10.0599 12.03 10.2799 11.99 10.4099 11.84C10.5399 11.69 10.5499 11.48 10.4399 11.33C10.4099 11.28 10.4199 11.21 10.4599 11.18C10.5099 11.15 10.5699 11.16 10.5999 11.2C10.7699 11.44 10.7599 11.76 10.5699 11.97Z" fill="#73423F"/>
<path d="M9.85498 10.765C9.90745 10.8175 9.90745 10.9025 9.85498 10.955C9.699 11.111 9.62129 11.2799 9.58245 11.4098C9.55333 11.5071 9.54638 11.5819 9.5448 11.6094C9.54142 11.6853 9.49198 11.7544 9.40998 11.7544C9.33579 11.7544 9.27563 11.6942 9.27563 11.62C9.27592 11.5406 9.28686 11.4603 9.32502 11.3327C9.37368 11.1701 9.47097 10.959 9.66499 10.765C9.71745 10.7125 9.80252 10.7125 9.85498 10.765Z" fill="#372128"/>
</svg>

<svg xmlns="http://www.w3.org/2000/svg" width="32" height="32" fill="none"><path fill="#635994" d="M3.99 27H7v3H3.99v-3ZM25 27h3.02v3H25v-3Z"/><path fill="#533566" d="M4 21v-9a1 1 0 1 0-2 0v15h28v-6H4Z"/><path fill="#A17FD5" d="M30 17H4v4h26v-4Z"/><path fill="#007ACF" d="m10.34 14.915-4.76-1.12c-.81-.19-1.58.42-1.58 1.25v1.88c0 .04.04.08.08.08h7.25v-.84c0-.6-.41-1.11-.99-1.25Z"/><path fill="#0092E7" d="M11 14a1 1 0 0 1 1-1h15a3 3 0 0 1 3 3v6H11v-8Z"/><path fill="#966661" d="M12.58 14.37c-.52.67-1.68 1.47-2.71 1.16l-1.28-.55-1.37-.54a1.88 1.88 0 0 1-.33-2.64l.75-.96a1.88 1.88 0 0 1 2.64-.33l.596.458a4.31 4.31 0 0 0 .698.073c.165.006.244.008.346.089.19.15.18.48.03.67l-.002.002c.935.76 1.506 1.443.632 2.568Z"/><path fill="#2D242D" d="M8.68 11.44c-.98 1.26-.21 1.85-.21 1.85s-.53.42 1.01 1.62c.8.62.15 1.09-.07 1.37-.35.47-1.21-.08-.72-.7 0 0-.63.78-2.8-.92-1.59-1.23-.65-2.82.4-3.59.75-.56.43-.73 1.08-1.57.22-.28.77-.67 1.4-.17.61.47.74 1.04-.09 2.11Z"/><path fill="#8B5C56" d="M8.47 13.29a.763.763 0 0 0 1.2.94"/><path fill="#990839" fill-rule="evenodd" d="M12.142 12.361c.066.024.1.096.076.161a.678.678 0 0 1-.873.406.126.126 0 0 1 .09-.236.427.427 0 0 0 .546-.254.126.126 0 0 1 .161-.077Z" clip-rule="evenodd"/><path fill="#73423F" d="M10.57 11.97c-.19.23-.52.29-.78.14-.05-.03-.07-.09-.04-.14.03-.05.09-.07.14-.04.17.1.39.06.52-.09s.14-.36.03-.51c-.03-.05-.02-.12.02-.15.05-.03.11-.02.14.02.17.24.16.56-.03.77Z"/><path fill="#372128" d="M9.855 10.765a.134.134 0 0 1 0 .19 1.078 1.078 0 0 0-.31.654c-.004.076-.053.145-.135.145a.134.134 0 0 1-.134-.134c0-.08.01-.16.049-.287.049-.163.146-.374.34-.568a.134.134 0 0 1 .19 0Z"/></svg>
